X:1
T:Symphony No.8
T:Symphony No.8
T:[unfinished] 2nd Movment
T:F. Schubert
T:Transposed by: Zackary Palm
C:F. Schubert
Z:Transposed by: Zackary Palm
L:1/8
M:3/8
K:E
V:1 bass nm="Tuba" snm="Tba."
V:1
 z3 | z3 | z3 | z3 | z3 | z3 | z3 | z3 | z3 | z3 | z3 | z3 | z3 | z3 | z3 | z3 | z3 | z3 | z3 | %19
 z3 | z3 | z3 | z3 | z3 | z3 | z3 | z3 | z3 | z3 | z3 | z3 | z3 |"^A"!f! .B,,.C,.A,, | %33
 .G,,.F,,.E,, | .D,,.B,,,.D,, | .E,,.F,,.G,, | .F,,G,,E,, | .[D,,D,].[C,,C,].[B,,,B,,] | %38
 .[^A,,,^A,,].[F,,,F,,].[A,,,A,,] | .[B,,,B,,].B,,.A,, | G,,A,,F,, | E,,C,,G,, | E,,^B,,,C,, | %43
 G,,3 | z3 | z3 | z3 | z3 | z3 | z3 | z3 | z3 | z3 | z3 | z3 | z3 | z3 | z3 | z3 | z3 | z3 | z3 | %62
 z3 | z3 | z3 | z3 | z3 | z3 | z3 | z3 | z3 | z3 | z3 | z3 | z3 | z3 | z3 | z3 | z3 | z3 | z3 | %81
 z3 | z3 | z3 | z3 | z3 | z3 | z3 | z3 | z3 | z3 | z3 | z3 | z3 | z3 |"^B"!ff! C,3 | E,3 | D,3 | %98
 F,3 | E, G,2 | F, A,2 | .G,.G,,.A,, | C,3 | E,3 | D,3 | F,3 | E, G,2 | F, A,2 | A,3 | A,,3 | %110
"^C" =D, z2 | z3 | z3 | z3 | z3 | z3 | z3 | z3 | z2!p! [E,,E,] | [=D,,=D,]3 | [=G,,,=G,,]2 z | z3 | %122
 z3 | z3 | z3 | z3 | z z!p! A,, | (=G,,3 | =C,,3) | z3 | z3 | z3 | z3 | z3 | z3 | z3 | z3 | z3 | %138
 z3 | z3 | z3 | z3 | z3 | z3 | z3 | z3 | z3 | z3 | z3 | z3 | z3 | z3 | z3 | z3 | z3 | z3 | z3 | %157
 z3 | z3 | z3 | z3 | z3 | z3 | z3 | z3 | z3 | z3 | z3 | z3 | z3 | z3 | z3 | z3 | %173
"^D"!ff! .B,,.C,.A,, | .G,,.F,,.E,, |"^stacc." D,,B,,,D,, | E,,G,,.B,, | E,,F,,=D,, | C,,B,,,A,,, | %179
 [G,,,G,,][E,,E,][G,,,G,,] | A,,B,,^B,, | [C,,C,][=D,,=D,][=B,,,=B,,] | A,,F,C, | %183
 [A,,A,][^E,,^E,][F,,F,] | [C,,C,]3 | z3 | z3 | z3 | z3 | z3 | z3 | z3 | z3 | z3 | z3 | z3 | z3 | %197
 z3 | z3 | z3 | z3 | z3 | z3 | z3 | z3 | z3 | z3 | z3 | z3 | z3 | z3 | z3 | z3 | z3 | z3 | z3 | %216
 z3 | z3 | z3 | z3 | z3 | z3 | z3 | z3 | z3 | z3 | z3 | z3 | z3 | z3 | z3 | z3 | z3 | z3 | z3 | %235
 z3 |"^E"!ff! .A,,.A,,,E,,- | E,,.A,,,A,,- | A,,.=D,,=F,,- | F,,.E,,B,,- | B,,/.A,,/.=C,,^C,,- | %241
 C,,/E,,/.=D,,.^D,, | .E,,.=G,,.B,, | .E,,.E,,B,,- | B,,.E,,E,,- | E,,.A,,,=C,,- | C,,.B,,,F,,- | %247
 F,,/E,,/.=G,,^G,,- | G,,/B,,/.A,,.=C, |!ff! [=C,,=C,]3 | [=C,,=C,]3 | [=F,,,=F,,]3 | z3 | %253
!ff! [B,,,=B,,]3 | [B,,,B,,]3 |"^F" [^C,,^C,] z2 | z3 | z3 | z3 | z3 | z3 | z3 | z3 | z3 | z3 | %265
 z3 | z3 | z3 | z3 | z3 | z3 | z3 | z3 | z3 | z3 | z3 | z3 | z3 | z3 | z3 | z3 | z3 | z3 | z3 | %284
 z3 |!ppp! _A,,3- | A,,3- |!<(! A,,2 (=F,,!<)! |!>(! _E,,3!>)! | _A,,2) z | z3 | z3 | z3 | z3 | %294
 z3 | z3 | z3 | z3 | z3 | z3 | z3 | z3 | z3 | z3 | z3 | z3 | z3 |!pp! E,,3- | E,,3- | E,,3- | %310
 E,,3- |!<(!!>(! !fermata!E,,3!<)!!>)! |] z3 | z3 | z3 | z3 | z3 | z3 | z3 | z3 | z3 | z3 | z3 | %323
 z3 | z3 | z3 | z3 | z3 | z3 | z3 | z3 | z3 | z3 | z3 | z3 | z3 | z3 | z3 | z3 | z3 |] %340

